assets/img/braze_icons/pen-tool-plus.svg

<svg fill="none" height="24" viewBox="0 0 24 24" width="24" xmlns="http://www.w3.org/2000/svg"><g fill="#801ed7"><path d="m17.6181 2.51195c-.4017-.13052-.8344-.13052-1.236 0-.2898.09413-.5116.2537-.6865.40214-.1592.13516-.333.30898-.5114.48747l-.7824.78236c-.1785.17844-.3523.35222-.4875.51144-.1484.17485-.308.39674-.4021.68645-.1073.33032-.1264.68161-.0572 1.01938l-4.89523 1.39864-.06406.01814c-.23558.06644-.53194.15003-.78961.31756-.22296.14496-.41476.33294-.5642.55292-.1727.25424-.26226.54885-.33344.78303l-.01944.06368-3.45287 9.55894c-.35334.9782-.53001 1.4672-.43393 1.6591.08269.1652.24971.2713.43436.276.21453.0055.58224-.3622 1.31767-1.0977l5.41345-5.4135c-.0441-.1652-.0677-.3388-.0677-.518 0-1.1046.8954-2 2-2s2 .8954 2 2-.8954 2-2 2c-.1792 0-.3528-.0236-.518-.0677l-5.41314 5.4131c-.73542.7354-1.10314 1.1031-1.09768 1.3176.0047.1847.11082.3517.27598.4344.19189.0961.68099-.0806 1.65918-.4339l9.55826-3.4527.0637-.0195c.2342-.0712.5288-.1607.783-.3334.22-.1494.408-.3412.553-.5642.1675-.2577.2511-.554.3175-.7896l.0182-.0641 1.3986-4.8951c.3378.0693.6891.0502 1.0195-.0572.2897-.0941.5116-.2537.6865-.4021.1592-.1352.333-.309.5114-.4875l.7824-.7823c.1785-.1785.3523-.3522.4875-.5115.1484-.1748.308-.3967.4021-.68642.1305-.40168.1305-.83438 0-1.23607-.0941-.28971-.2537-.5116-.4021-.68645-.1352-.15921-.309-.33299-.4875-.51143l-3.7824-3.78238c-.1784-.17848-.3522-.3523-.5114-.48746-.1749-.14844-.3968-.30801-.6865-.40214z"/><path d="m6 2c0-.55228-.44772-1-1-1s-1 .44772-1 1v2h-2c-.55228 0-1 .44772-1 1s.44772 1 1 1h2v2c0 .55228.44772 1 1 1s1-.44772 1-1v-2h2c.55228 0 1-.44772 1-1s-.44772-1-1-1h-2z"/></g></svg>

<svg width="24" height="24" viewBox="0 0 24 24" fill="none" xmlns="http://www.w3.org/2000/svg">
<path d="M17.6181 2.51195C17.2164 2.38143 16.7837 2.38143 16.3821 2.51195C16.0923 2.60608 15.8705 2.76565 15.6956 2.91409C15.5364 3.04925 15.3626 3.22307 15.1842 3.40156L14.4018 4.18392C14.2233 4.36236 14.0495 4.53614 13.9143 4.69536C13.7659 4.87021 13.6063 5.0921 13.5122 5.38181C13.4049 5.71213 13.3858 6.06342 13.455 6.40119L8.55977 7.79983L8.49571 7.81797C8.26013 7.88441 7.96377 7.968 7.7061 8.13553C7.48314 8.28049 7.29134 8.46847 7.1419 8.68845C6.9692 8.94269 6.87964 9.2373 6.80846 9.47148L6.78902 9.53516L3.33615 19.0941C2.98281 20.0723 2.80614 20.5613 2.90222 20.7532C2.98491 20.9184 3.15193 21.0245 3.33658 21.0292C3.55111 21.0347 3.91882 20.667 4.65425 19.9315L10.0677 14.518C10.0236 14.3528 10 14.1792 10 14C10 12.8954 10.8954 12 12 12C13.1046 12 14 12.8954 14 14C14 15.1046 13.1046 16 12 16C11.8208 16 11.6472 15.9764 11.482 15.9323L6.06886 21.3454C5.33344 22.0808 4.96572 22.4485 4.97118 22.663C4.97588 22.8477 5.082 23.0147 5.24716 23.0974C5.43905 23.1935 5.92815 23.0168 6.90634 22.6635L16.4646 19.2108L16.5283 19.1913C16.7625 19.1201 17.0571 19.0306 17.3113 18.8579C17.5313 18.7085 17.7193 18.5167 17.8643 18.2937C18.0318 18.036 18.1154 17.7397 18.1818 17.5041L18.2 17.44L19.5986 12.5449C19.9364 12.6142 20.2877 12.5951 20.6181 12.4877C20.9078 12.3936 21.1297 12.234 21.3046 12.0856C21.4638 11.9504 21.6376 11.7766 21.816 11.5981L22.5984 10.8158C22.7769 10.6373 22.9507 10.4636 23.0859 10.3043C23.2343 10.1295 23.3939 9.9076 23.488 9.61788C23.6185 9.2162 23.6185 8.7835 23.488 8.38181C23.3939 8.0921 23.2343 7.87021 23.0859 7.69536C22.9507 7.53615 22.7769 7.36237 22.5984 7.18393L18.816 3.40155C18.6376 3.22307 18.4638 3.04925 18.3046 2.91409C18.1297 2.76565 17.9078 2.60608 17.6181 2.51195Z" fill="#801ED7"/>
<path d="M6 2C6 1.44772 5.55228 1 5 1C4.44772 1 4 1.44772 4 2V4H2C1.44772 4 1 4.44772 1 5C1 5.55228 1.44772 6 2 6H4V8C4 8.55228 4.44772 9 5 9C5.55228 9 6 8.55228 6 8V6H8C8.55228 6 9 5.55228 9 5C9 4.44772 8.55228 4 8 4H6V2Z" fill="#801ED7"/>
</svg>
